!!!!SEGMENT: pl-sa--70-a-ii-10--005_pergolesi-giovanni-battista--stabat-mater-quis-est-homo-pro-peccatis.krn
!!!cenid: 17xx:647
!!!COM: Pergolesi, Giovanni Battista
!!!COM-rismID: pe30002483
!!!CDT: 1710/01/04-1736/03
!!!CNT: Italian
!!!OPR: Stabat Mater
!!!OTL: Quis est homo-Pro peccatis
!!!OMV: 005
!!!PDT:
!!!AGN: Sacred
!!!SMS-siglum: PL-SA
!!!SMS-shelfmark: 70/A II 10
!!!SMS-shelfwork: 001-005 M
!!!SMS-variant:
!!!SMS-altvar:
!!!NIFC-rismSourceID: 1001030091
!!!NIFC-islandoraID:
!!!URL-pdf-islandora:
!!!URL-scan: https://bc.bdsandomierz.pl/dlibra/publication/1341/edition/1309/content @EN{Scan in the Sandomierz Diocese Digital Library} @PL{Skany w portalu Cyfrowa Biblioteka Diecezjalna w Sandomierzu}
!!!ONB-nifc: UWAGA: części Stabat Mater: Stabat Mater, Cuius animam, O quam tristis, Quae moerebat, Quist est homo+Pro peccatis, Vidit suum, Eja mater, Fac ut ardeat, Sancta Mater, Fac ut portem, Inflammatus, Quando corpus+Amen
!!!AIN: 1 alto 1 organ 1 viola 2 violn 1 vox
!!!key:
**kern	**fba	**kern	**kern	**kern	**dynam	**kern	**text	**kern	**text	**dynam
*part6	*	*part5	*part4	*part3	*part3	*part2	*part2	*part1	*part1	*part1
*	*	*group2	*group2	*group2	*	*group1	*	*group1	*	*
*staff6	*	*staff5	*staff4	*staff3	*	*staff2	*staff2	*staff1	*staff1	*
*Iorgan	*	*Iviola	*Ivioln	*Ivioln	*	*Ialto	*	*Ivox	*	*
*I"ORGANO	*	*I"Alto Viola	*I"Violino 2do	*I"Violino 1mo	*	*I"Alto	*	*I"Canto	*	*
*I'org	*	*I'a-vla	*I'vl 2	*I'vl 1	*	*I'A	*	*I'S	*	*
*clefF4	*	*clefC3	*clefG2	*clefG2	*	*clefC3	*	*clefC1	*	*
*k[e-b-a-]	*	*k[e-b-a-]	*k[e-b-a-]	*k[e-b-a-]	*	*k[e-b-]	*	*k[e-b-a-]	*	*
*c:	*	*c:	*c:	*c:	*	*c:	*	*c:	*	*
*M4/4	*	*M4/4	*M4/4	*M4/4	*	*M4/4	*	*M4/4	*	*
*met(c)	*	*met(c)	*met(c)	*met(c)	*	*met(c)	*	*met(c)	*	*
=1	=1	=1	=1	=1	=1	=1	=1	=1	=1	=1
!LO:TX:a:t=P:problem=w pierwszym systemie bemole E- C- AA-	!	!LO:TX:a:t=P:problem=w pierwszym systemie bemole ee- dd- a-, w drugim ee- cc- a-	!	!	!	!	!	!LO:TX:a:t=P:problem=bemole ee- b- a-	!	!
!LO:TX:b:i:t=Quis est homo	!	!LO:TX:b:i:t=Quis est homo	!	!	!	!	!	!	!	!
!LO:TX:a:i:t=Largo	!	!LO:TX:a:i:t=Largo	!LO:TX:b:i:t=Quis est homo	!LO:TX:a:i:t=Largo	!	!LO:TX:a:t=6	!	!	!	!
!LO:TX:a:t=P:problem=mixed beam	!	!LO:TX:a:t=P:problem=mixed beam	!LO:TX:a:i:t=Larghetto	!LO:TX:b:i:t=Quis est homo	!	!LO:TX:a:t=Larghetto	!	!	!	!
8C/L	.	8c/L	8g/L	8ee-\L	.	00r	.	4.cc\	Quis	.
8c\	.	8cc\	8g/	8ee-\	.	.	.	.	.	.
8c\	.	8cc\	8g/	8ee-\	.	.	.	.	.	.
8c\J	.	8cc\J	8g/J	8ee-\J	.	.	.	8ee-\	eſt	.
8c\L	2	8cc\L	8f/L	8dd\L	.	.	.	16dd\LL	ho-	.
.	.	.	.	.	.	.	.	16cc\JJ	.	.
8Bn\	6	8bn\	8f/	8dd\	.	.	.	8dd\	-mo	.
8B\	.	8b\	8f/	8dd\	.	.	.	4r	.	.
8B\J	.	8b\J	8f#X/J	8dd\J	.	.	.	.	.	.
=2	=2	=2	=2	=2	=2	=2	=2	=2	=2	=2
8B-X\L	6\	8b-X\L	8g/L	8dd\L	.	.	.	4dd\	qui	.
8B-\	.	8b-\	8g/	8dd\	.	.	.	.	.	.
8B-\	.	8b-\	8g/	8dd\	.	.	.	4gg\	non	.
8B-\J	.	8b-\J	8g/J	8dd\J	.	.	.	.	.	.
!	!	!	!	!	!	!	!	!LO:SIC:v:l:s=fle-	!	!
8B-\L	#4r 2	8b-\L	8g/L	8een\L	.	.	.	4een\	flo-	.
!	!	!LO:SIC:v:s=8an	!	!	!	!	!	!	!	!
8An\	.	8a-X\	8cc/	8ff\	.	.	.	.	.	p
!	!	!LO:SIC:v:s=8a	!	!	!	!	!	!	!	!
8A\	.	8a-\	8cc/	8ff\	.	.	.	4ff\	-ret	.
!	!	!LO:SIC:v:s=8a	!	!	!	!	!	!	!	!
8A\J	.	8a-\J	8cc/J	8ff\J	.	.	.	.	.	.
=3	=3	=3	=3	=3	=3	=3	=3	=3	=3	=3
8A-X\L	6	8a-X\L	8cc\L	8ff\L	.	.	.	4.ff\	Chri-	.
8A-\	.	8a-\	8cc\	8ff\	.	.	.	.	.	.
8F\	.	8f\	8cc\	8ff\	.	.	.	.	.	.
8F\J	.	8f\J	8cc\J	8ff\J	.	.	.	8aa-\	-sti	.
!LO:LB:g=original	!	!	!	!	!	!	!	!	!	!
8F\L	4	8f\L	8bn\L	8dd\L	.	.	.	4.bn\	Ma-	.
8F\	.	8f\	8b\	8dd\	.	.	.	.	.	.
8E-\	6	8e-\	8b\	8g\	.	.	.	.	.	.
8E-\J	.	8e-\J	8cc\J	8g\J	.	.	.	8cc\	-trem	.
=4	=4	=4	=4	=4	=4	=4	=4	=4	=4	=4
8r	.	8r	8dd\L	8ff\L	.	.	.	4ff\	si	.
8F\L	.	8f\L	8dd\	8ff\	.	.	.	.	.	.
8F#X\	7	8f#X\	8cc\	8ee-\	.	.	.	4ee-\	vi-	.
8F#\J	.	8f#\J	8cc\J	8ee-\J	.	.	.	.	.	.
!LO:TX:a:t=P:problem=mixed beam	!	!LO:TX:a:t=P:problem=mixed beam	!	!	!	!	!	!	!	!
8G\L	6 4	8g\L	8cc\L	8ee-\L	.	.	.	8ee-\	-de-	.
!	!	!	!	!	!	!	!	!LO:SIC:v:l:s=-ret	!	!
8GG/J	x n	8G/J	8bn\J	8dd\J	.	.	.	8dd\	-rent	.
4r	.	4r	4r	4r	.	.	.	8r	.	.
.	.	.	.	.	.	.	.	8g/	in	.
=5	=5	=5	=5	=5	=5	=5	=5	=5	=5	=5
4r	.	4r	4r	1gg	.	0r	.	1gg	tan-	.
4c\	.	4cc\	4ee-\	.	.	.	.	.	.	.
4Bn\	6	4bn\	4dd\	.	.	.	.	.	.	.
4B-X\	-	4b-X\	4dd-X\	.	.	.	.	.	.	.
.	6	.	.	.	.	.	.	.	.	.
!	!	!	!	!LO:LB:g=original	!	!	!	!	!	!
=6	=6	=6	=6	=6	=6	=6	=6	=6	=6	=6
*	*	*	*2\right	*	*	*	*	*	*	*
!	!	!	!	!	!	!	!	!LO:SIC:v:l:s=-to	!	!
4An\	7	4an\	2cc\	4gg\	.	.	.	4gg\	-tem	.
4A-X\	6	4a-X\	.	8ff\L	.	.	.	16.ff\LL	.	.
.	.	.	.	.	.	.	.	32ee-\JJk	.	.
!	!	!	!	!	!	!	!	!LO:SIC:v:l:s=sup-	!	!
.	.	.	.	8ff#X\J	.	.	.	16.dd\LL	su-	.
.	n	.	.	.	.	.	.	32cc\JJk	.	.
*2\right	*	*2\right	*	*2\right	*	*	*	*	*	*
!	!	!	!	!	!	!	!	!LO:LB:g=original	!	!
2G;\	.	2g;\	2bn;\	2gg;\	.	.	.	8.bn\	-pli-	.
.	.	.	.	.	.	.	.	16a-\	-ci-	.
.	.	.	.	.	.	.	.	4g\	-o	.
=7	=7	=7	=7	=7	=7	=7	=7	=7	=7	=7
!LO:TX:a:t=P:problem=mixed beam	!	!LO:TX:a:t=P:problem=mixed beam	!	!	!	!LO:SIC:v:l:s=Quis	!	!	!	!
8GG/L	6	8G/L	8b-X/L	8dd\L	.	4.g\	Qui	00r	.	.
8G\	.	8g\	8b-/	8dd\	.	.	.	.	.	.
8G\	.	8g\	8b-/	8dd\	.	.	.	.	.	.
8G\J	.	8g\J	8b-/J	8dd\J	.	8b-\	non	.	.	.
8G\L	2	8g\L	8an/L	8cc\L	.	16an\LL	poſ-	.	.	.
.	.	.	.	.	.	16g\JJ	.	.	.	.
.	.	.	.	.	.	8qqg/	.	.	.	.
8F#X\	6	8f#X\	8a/	8cc\	.	8a\	-set	.	.	.
8F#\	.	8f#\	8a/	8cc\	.	4r	.	.	.	.
8F#\J	.	8f#\J	8a/J	8cc#X\J	.	.	.	.	.	.
!	!	!	!LO:LB:g=original	!	!	!	!	!	!	!
=8	=8	=8	=8	=8	=8	=8	=8	=8	=8	=8
8Fn\L	6	8fn\L	8an/L	8dd\L	.	4.a\	Con-	.	.	.
8F\	.	8f\	8a/	8dd\	.	.	.	.	.	.
8F\	.	8f\	8a/	8dd\	.	.	.	.	.	.
8F\J	.	8f\J	8a/J	8dd\J	.	8dd\	-tri-	.	.	.
8F\L	4 2	8f\L	8g/L	8bn\L	.	8bn\	-sta-	.	.	.
!LO:SIC:v:s=8En	!	!	!	!	!	!	!	!	!	!
8E-\	6	8en\	8g/	8cc\	.	4.cc\	-ri	.	.	.
!LO:SIC:v:s=8En	!	!	!	!	!	!	!	!	!	!
8E-\	.	8e\	8g/	8cc\	.	.	.	.	.	.
!LO:SIC:v:s=8En	!	!	!	!	!	!	!	!	!	!
8E-\J	.	8e\J	8g/J	8cc\J	.	.	.	.	.	.
=9	=9	=9	=9	=9	=9	=9	=9	=9	=9	=9
8E-X\L	6	8e-X\L	8g/L	8cc\L	.	4.cc\	pi-	.	.	.
8E-\	.	8e-\	8g/	8cc\	.	.	.	.	.	.
8C\	.	8c\	8g/	8cc\	.	.	.	.	.	.
8C\J	.	8c\J	8g/J	8cc\J	.	8ee-\	-am	.	.	.
.	.	.	.	.	.	8qqg/	.	.	.	.
!	!	!LO:LB:g=original	!	!	!	!	!	!	!	!
8C/L	#4r 2	8c/L	8f#X/L	8an/L	.	4f#X\	Ma-	.	.	.
8C/	.	8c/	8f#/	8a/	.	.	.	.	.	.
8BB-/	6	8B-/	8f#/	8d/	.	4g\	-trem	.	.	.
8BB-/J	.	8B-/J	8g/J	8d/J	.	.	.	.	.	.
=10	=10	=10	=10	=10	=10	=10	=10	=10	=10	=10
8r	.	8r	8a-/L	8cc\L	.	4cc\	Con-	.	.	.
8C/L	6	8c\L	8a-/	8cc\	.	.	.	.	.	.
!	!	!LO:SIC:v:s=8c#	!	!	!	!	!	!	!	!
8C#X/	7	8c\	8g/	8b-\	.	4b-\	-tem-	.	.	.
8C#X/J	.	8c#X\J	8g/J	8b-\J	.	.	.	.	.	.
4D/	6 4	4d\	8g/L	(8b-\L	.	8b-\	-pla-	.	.	.
.	#	.	8f#X/J	8an\J)	.	8a\	-ri	.	.	.
!	!	!	!	!	!	!LO:LB:g=original	!	!	!	!
4r	.	4r	4r	4r	.	8r	.	.	.	.
.	.	.	.	.	.	8d\	do-	.	.	.
=11	=11	=11	=11	=11	=11	=11	=11	=11	=11	=11
4r	.	4r	4r	1dd	.	1dd	-len-	0r	.	.
4G\	.	4g\	4b-/	.	.	.	.	.	.	.
4F#X\	#	4f#X\	4an/	.	.	.	.	.	.	.
4Fn\	-	4fn\	4a-X/	.	.	.	.	.	.	.
.	6	.	.	.	.	.	.	.	.	.
=12	=12	=12	=12	=12	=12	=12	=12	=12	=12	=12
!	!	!	!	!	!	!LO:SIC:v:l:s=-tum	!	!	!	!
4En\	7	4en\	2g/	4dd\	.	4dd\	-tem	.	.	.
4E-X\	6	4e-X\	.	8dd\L	.	16.cc\LL	.	.	.	.
.	.	.	.	.	.	32b-\JJk	.	.	.	.
!	!	!	!	!	!	!LO:SIC:v:l:s=cum	!	!	!	!
.	.	.	.	8cc#X\J	.	16.a\LL	con	.	.	.
.	.	.	.	.	.	32g\JJk	.	.	.	.
2D;\	#	2d;\	2f#X;/	2dd;\	.	8.f#X\	fi-	.	.	.
.	.	.	.	.	.	16e-\	-li-	.	.	.
!	!	!	!	!	!	!LO:N:vis=4	!	!	!	!
.	.	.	.	.	.	8d;\	-o	.	.	.
.	.	.	.	.	.	8r	.	.	.	.
!LO:LB:g=original	!	!	!	!	!	!	!	!	!	!
=13	=13	=13	=13	=13	=13	=13	=13	=13	=13	=13
!	!	!	!LO:TX:a:t=P:problem=mixed beam	!LO:TX:a:t=P:problem=mixed beam	!	!LO:SIC:v:l:s=Quis	!	!LO:SIC:v:s=4an	!	!
8D\L	#	8d\L	8.d/L	8.d/L	.	4f#X\	Qui	4a-\	Quis	.
8D\	.	8d\	.	.	.	.	.	.	.	.
.	.	.	16dd\Jk	16dd\Jk	.	.	.	.	.	.
8D\	.	8d\	16.an/LL	16.an/LL	.	8r	.	8r	.	.
.	.	.	32b-/K	32b-/K	.	.	.	.	.	.
8D\J	.	8d\J	16.f#X/	16.f#X/	.	8g\	non	8b-\	eſt	.
.	6 4	.	32g/JJk	32g/JJk	.	.	.	.	.	.
!	!	!	!LO:TX:a:t=P:problem=mixed beam	!LO:TX:a:t=P:problem=mixed beam	!	!	!	!	!	!
8D\L	.	8d\L	8.d/L	8.d/L	.	8g\	poſ-	8b-\	ho-	.
!	!	!	!	!	!	!	!	!LO:SIC:v:s=4an	!	!
8D\	#	8d\	.	.	.	8f#\	-set	8a-\	-mo	.
.	.	.	16dd\Jk	16dd\Jk	.	.	.	.	.	.
8D\	.	8d\	16.an/LL	16.an/LL	.	4r	.	4r	.	.
.	.	.	32b-/K	32b-/K	.	.	.	.	.	.
8D\J	.	8d\J	16.f#X/	16.f#X/	.	.	.	.	.	.
.	.	.	32g/JJk	32g/JJk	.	.	.	.	.	.
=14	=14	=14	=14	=14	=14	=14	=14	=14	=14	=14
!	!	!	!LO:TX:a:t=P:problem=takt zapisany repetycją	!	!	!	!	!	!	!
!	!	!	!LO:TX:a:t=P:problem=mixed beam	!LO:TX:a:t=P:problem=mixed beam	!	!	!	!LO:SIC:v:s=4an	!	!
8D\L	.	8d\L	8.d/Lyy	8.d/L	.	4.f#X\	Con-	4.a-\	qui	.
8D\	.	8d\	.	.	.	.	.	.	.	.
.	.	.	16dd\Jkyy	16dd\Jk	.	.	.	.	.	.
8D\	.	8d\	16.an/LLyy	16.an/LL	.	.	.	.	.	.
.	.	.	32b-/Kyy	32b-/K	.	.	.	.	.	.
8D\J	.	8d\J	16.f#X/yy	16.f#X/	.	8g\	-tri-	8b-\	non	.
.	6 4	.	32g/JJkyy	32g/JJk	.	.	.	.	.	.
!	!	!	!LO:TX:a:t=P:problem=mixed beam	!LO:TX:a:t=P:problem=mixed beam	!	!	!	!LO:SIC:v:l:s=fle-	!	!
8D\L	6 4	8d\L	8.d/Lyy	8.d/L	.	8g\	-sta-	8b-\	flo-	.
!	!	!	!	!	!	!	!	!LO:SIC:v:s=4an	!	!
8D\	#3	8d\	.	.	.	8f#\	-ri	8a-\	-ret	.
.	.	.	16dd\Jkyy	16dd\Jk	.	.	.	.	.	.
8D\	.	8d\	16.an/LLyy	16.an/LL	.	4r	.	4r	.	.
.	.	.	32b-/Kyy	32b-/K	.	.	.	.	.	.
8D\J	.	8d\J	16.f#X/yy	16.f#X/	.	.	.	.	.	.
.	.	.	32g/JJkyy	32g/JJk	.	.	.	.	.	.
!	!	!	!	!LO:LB:g=original	!	!	!	!	!	!
=15	=15	=15	=15	=15	=15	=15	=15	=15	=15	=15
!	!	!	!LO:TX:a:t=P:problem=mixed beam	!LO:TX:a:t=P:problem=mixed beam	!	!LO:SIC:v:s=4.f#	!	!LO:SIC:v:s=4an	!	!
8D\L	.	8d\L	8.d/L	8.d/L	.	4.f\	pi-	4.a-\	Chri-	.
8D\	.	8d\	.	.	.	.	.	.	.	.
.	.	.	16dd\Jk	16dd\Jk	.	.	.	.	.	.
8D\	.	8d\	16.an/LL	16.an/LL	.	.	.	.	.	.
.	.	.	32b-/K	32b-/K	.	.	.	.	.	.
8D\J	.	8d\J	16.f#X/	16.f#X/	.	8g\	-am	8b-\	-sti	.
.	6 4	.	32g/JJk	32g/JJk	.	.	.	.	.	.
8D\L	7 n	8f#X\L	8cc\L	8cc\L	.	4an\	Ma-	4cc\	Ma-	.
8F#X\	.	8f#\	8an\	8cc\	.	.	.	.	.	.
8G\	.	8g\	8g\	8b-\	.	4g\	-trem	4b-\	-trem	.
8G\J	.	8g\J	8g\J	8b-\J	.	.	.	.	.	.
=16	=16	=16	=16	=16	=16	=16	=16	=16	=16	=16
!	!	!	!LO:TX:a:t=P:problem=mixed beam	!LO:TX:a:t=P:problem=mixed beam	!	!	!	!	!	!
8C#X/L	7	8c#X\L	8gg\L	8bb-\L	.	8b-\	Con-	8gg\	si	.
8C#/	.	8c#\	8g/	8b-/	.	4.g\	-tem-	4.b-\	vi-	.
8C#/	.	8c#\	8g/	8b-/	.	.	.	.	.	.
8C#/J	.	8c#\J	8g/J	8b-/J	.	.	.	.	.	.
8D\L	6 4	8d\L	8g/L	8b-/L	.	8g\	-pla-	8b-\	-de-	.
!	!	!	!	!	!	!	!	!LO:SIC:v:l:s=-ret	!	!
!	!	!	!	!	!	!	!	!LO:SIC:v:s=4an	!	!
8D\	.	8d\	16f#X/L	8an/J	.	8f#X\	-ri	8a-\	-rent	.
.	.	.	16dd/JJ	.	.	.	.	.	.	.
8D\	#3	8d\	16.an/LL	4dd\	.	4r	.	8r	.	.
.	.	.	32b-/K	.	.	.	.	.	.	.
8D\J	.	8d\J	16.f#X/	.	.	.	.	8dd\	in	.
.	.	.	32g/JJk	.	.	.	.	.	.	.
=17	=17	=17	=17	=17	=17	=17	=17	=17	=17	=17
2E-\	7	2e-\	8G/	(4.dd\	.	2r	.	4gg\	tan-	.
.	.	.	4g/	.	.	.	.	.	.	.
.	6	.	.	.	.	.	.	16.ff\LL	-to	.
.	.	.	.	.	.	.	.	32ee-X\JJk	.	.
!	!	!	!	!	!	!	!	!LO:SIC:v:l:s=sup-	!	!
.	.	.	8g/	8cc#X\)	.	.	.	16.dd\LL	su-	.
.	.	.	.	.	.	.	.	32cc#X\JJk	.	.
!	!	!	!LO:LB:g=original	!	!	!	!	!	!	!
!	!	!	!LO:TX:a:t=P:problem=mixed beam	!	!	!	!	!	!	!
8D\L	#	8d\L	8.f#X/L	[2dd\	.	4r	.	16cc#\	-pli-	.
.	.	.	.	.	.	.	.	16cc#X\	-ci-	.
8D\	.	8d\	.	.	.	.	.	8dd\	-o	.
.	.	.	16dd\Jk	.	.	.	.	.	.	.
!	!	!	!LO:SIC:v:s=16.an	!	!	!	!	!	!	!
8D\	.	8d\	16.a-/LL	.	.	8r	.	4r	.	.
.	.	.	32b-/K	.	.	.	.	.	.	.
8D\J	.	8d\J	16.f#X/	.	.	8d\	do-	.	.	.
.	.	.	32g/JJk	.	.	.	.	.	.	.
=18	=18	=18	=18	=18	=18	=18	=18	=18	=18	=18
!	!	!	!	!	!	!	!	!LO:TX:a:t=1	!	!
2E-\	7	2e-\	8G/	4.dd\]	.	4g\	-len-	1r	.	.
.	.	.	4g/	.	.	.	.	.	.	.
!	!	!	!	!	!	!LO:SIC:v:l:s=tum	!	!	!	!
.	6	.	.	.	.	16.fn\LL	-tem	.	.	.
.	.	.	.	.	.	32e-\JJk	.	.	.	.
!	!	!	!	!	!	!LO:SIC:v:l:s=cum	!	!	!	!
.	.	.	8g/	8cc#X\	.	16.d\LL	com	.	.	.
.	.	.	.	.	.	32c#X\JJk	.	.	.	.
!	!	!	!LO:TX:a:t=P:problem=mixed beam	!	!	!	!	!	!	!
4D\	#	4d\	8.f#X/L	8.dd\L	.	16d\	fi-	.	.	.
.	.	.	.	.	.	16c#\	-li-	.	.	.
.	.	.	.	.	.	8d\	-o	.	.	.
.	.	.	16dd\Jk	16dd\Jk	.	.	.	.	.	.
4r	.	4r	16.an/LL	16.an/LL	.	4r	.	.	.	.
.	.	.	32b-/K	32b-/K	.	.	.	.	.	.
.	.	.	16.f#X/	16.f#X/	.	.	.	.	.	.
.	.	.	32g/JJk	32g/JJk	.	.	.	.	.	.
!	!	!	!	!	!	!	!	!LO:LB:g=original	!	!
=19	=19	=19	=19	=19	=19	=19	=19	=19	=19	=19
!	!	!	!LO:TX:a:t=P:problem=mixed beam	!LO:TX:a:t=P:problem=mixed beam	!	!	!	!	!	!
4D\	#	4d\	8.d/L	8.d/L	.	4d\	quis	4f#X/	Quis	.
.	.	.	16dd\Jk	16dd\Jk	.	.	.	.	.	.
4r	.	4r	16.an/LL	16.an/LL	.	4r	.	4r	.	.
.	.	.	32b-/K	32b-/K	.	.	.	.	.	.
.	.	.	16.f#X/	16.f#X/	.	.	.	.	.	.
.	.	.	32g/JJk	32g/JJk	.	.	.	.	.	.
!	!	!	!	!	!	!	!	!LO:SIC:v:s=4an	!	!
4D\	.	4d\	4d;/	4d/	.	4f#X\	quis	4a-\	quis	.
!	!	!	!	!	!	!LO:TX:a:t=P:problem=pojedyncza kreska taktowa	!	!LO:TX:a:t=P:problem=pojedyncza kreska taktowa	!	!
!	!	!	!	!	!	!LO:TX:b:t=Cito Vertat	!	!	!	!
4r	.	4r	4r	4r	.	4r	.	4r	.	.
!	!	!LO:LB:g=original	!	!	!	!LO:PB:g=original	!	!	!	!
=20||	=20||	=20||	=20||	=20||	=20||	=20||	=20||	=20||	=20||	=20||
*k[e-b-a-]	*	*k[e-b-a-]	*k[e-b-a-]	*k[e-b-a-]	*	*k[e-b-]	*	*k[e-b-a-]	*	*
*M6/8	*	*M6/8	*M6/8	*M6/8	*	*M6/8	*	*M6/8	*	*
!	!	!	!	!	!	!	!	!LO:TX:a:t=P:problem=bemole ee- b- a-	!	!
!	!	!LO:TX:b:i:t=Propecatis	!LO:TX:b:i:t=Propecatis	!LO:TX:b:i:t=Pro peccatis	!	!	!	!	!	!
!	!	!	!LO:TX:a:i:t=Allo	!LO:TX:a:i:t=Allo	!	!LO:TX:a:t=allo	!	!	!	!
4.E-\	.	4.e-\	8g/L	8b-/L	.	4.g\	Pro	[4.b-\	Pro	.
.	.	.	8e-/	8g/	.	.	.	.	.	.
.	.	.	8f/J	8a-/J	.	.	.	.	.	.
!	!	!	!	!	!	!LO:SIC:v:l:s=pec-	!	!	!	!
4.E-\	.	4.e-\	8g/L	8b-/L	.	8g\	pe-	8b-\]	.	.
!	!	!	!	!	!	!LO:SIC:v:s=8a-	!	!	!	!
.	.	.	8a-/	8cc/	.	8a\L	.	8cc\L	pec-	.
.	.	.	8f/J	8a-X/J	.	8f\J	.	8a-\J	.	.
=21	=21	=21	=21	=21	=21	=21	=21	=21	=21	=21
!	!	!	!	!	!	!	!	!LO:SIC:v:l:s=-ca-	!	!
4.E-\	.	4.e-\	8g/L	8b-/L	.	4.g\	-ca-	4.b-\	-a-	.
.	.	.	8e-/	8g/	.	.	.	.	.	.
.	.	.	8f/J	8a-/J	.	.	.	.	.	.
4.E-\	.	4.e-\	8g/L	8b-/L	.	8g\	.	8b-\	.	.
!	!	!	!	!	!	!LO:SIC:v:s=8a-	!	!	!	!
.	.	.	8a-/	8cc/	.	8a\L	-tis	(8cc\L	-tiſ	.
.	.	.	8f/J	8a-/J	.	8f\J	.	8a-\J)	.	.
!LO:LB:g=original	!	!	!	!	!	!	!	!	!	!
=22	=22	=22	=22	=22	=22	=22	=22	=22	=22	=22
4.E-\	.	4.e-\	8g/L	8b-/L	.	4.g\	su-	4.b-\	su-	.
.	.	.	8e-/	8g/	.	.	.	.	.	.
.	.	.	8f/J	8a-/J	.	.	.	.	.	.
4.E-\	.	4.e-\	8g/L	8b-/L	.	8g\	-ae	8b-\	.	.
!	!	!	!	!	!	!LO:SIC:v:s=8a-	!	!	!	!
.	.	.	8a-/	8cc/	.	8a\L	.	8cc\L	-ae	.
.	.	.	8f/J	8a-/J	.	8f\J	.	8a-\J	.	.
!	!	!	!	!LO:LB:g=original	!	!	!	!	!	!
=23	=23	=23	=23	=23	=23	=23	=23	=23	=23	=23
!	!	!	!	!	!	!	!	!LO:SIC:v:l:s=gen-	!	!
4.E-\	.	4.e-\	8g/L	8b-/L	.	4.g\	gen-	4.b-\	agen-	.
.	.	.	8g/	8g/	.	.	.	.	.	.
.	.	.	8e-/J	8e-/J	.	.	.	.	.	.
(8E-\L	.	8e-\L	4.B-/	4.B-/	.	4e-\	-tis	8e-/	-tiſ	.
8G\	.	8g\	.	.	.	.	.	8ryy	.	.
8E-\J)	.	8e-\J	.	.	.	8r	.	8r	.	.
=24	=24	=24	=24	=24	=24	=24	=24	=24	=24	=24
!	!	!	!	!	!LO:DY:b	!	!	!	!	!
4.BB-/	.	4.B-/	8d/L	8f/L	p	[4.d\	vi-	[>4.f/	Vi-	.
.	.	.	8B-/	8d/	.	.	.	.	.	.
.	.	.	8c/J	8e-/J	.	.	.	.	.	.
4.BB-/	.	4.B-/	8d/L	8f/L	.	8d\]	.	8f/]	.	.
.	.	.	8e-/	8g-X/	.	8e-\L	-dit	8g-X/L	-dit	.
!	!	!	!	!LO:SIC:v:s=8e-	!	!	!	!	!	!
.	.	.	8c/J	8f/J	.	8c\J	.	8e-/J	.	.
=25	=25	=25	=25	=25	=25	=25	=25	=25	=25	=25
!	!	!	!LO:TX:a:t=P:problem=takt zapisany repetycją	!	!	!	!	!	!	!
4.BB-/	.	4.B-/	8d/Lyy	8f/L	.	[4.d\	Je-	4.f/	Je-	.
.	.	.	8B-/yy	(8d/	.	.	.	.	.	.
.	.	.	8c/Jyy	8e-/J)	.	.	.	.	.	.
4.BB-/	.	4.B-/	8d/Lyy	(8f/L	.	8d\]	.	8f/	.	.
.	.	.	8e-/yy	8g-X/	.	8e-\L	-sum	8g-X/L	-sum	.
.	.	.	8c/Jyy	8e-/J)	.	8c\J	.	8e-/J	.	.
=26	=26	=26	=26	=26	=26	=26	=26	=26	=26	=26
!	!	!	!	!	!	!	!	!LO:TX:a:t=P:problem=brak taktu i sylab "in tor-"	!	!
4.BB-/	.	4.B-/	8d/L	8f/L	.	4.d\	in	2.ryy	.	.
.	.	.	8B-/	(8d/	.	.	.	.	.	.
.	.	.	8c/J	8e-/J)	.	.	.	.	.	.
4.BB-/	.	4.B-/	8d/L	(8f/L	.	8d\	.	.	.	.
.	.	.	8e-/	8g-X/	.	8e-\L	tor-	.	.	.
.	.	.	8c/J	8e-/J)	.	8c\J	.	.	.	.
=27	=27	=27	=27	=27	=27	=27	=27	=27	=27	=27
4.BB-/	.	4.B-/	8d/L	8f/L	.	4.d\	-men-	4.f/	in tor-	.
.	.	.	8f/	8f/	.	.	.	.	.	.
.	.	.	8d/J	8d/J	.	.	.	.	.	.
!LO:TX:a:t=P:problem=mixed beam	!	!	!	!	!	!	!	!	!	!
8BB-/L	.	8B-/L	4B-/	4B-/	.	4d\	-tis	4f/	mentiſ	.
(8F\	.	8f/	.	.	.	.	.	.	.	.
8D\J)	.	8d/J	8r	8r	.	8r	.	8r	.	.
!	!	!	!LO:LB:g=original	!	!	!LO:LB:g=original	!	!LO:LB:g=original	!	!
=28	=28	=28	=28	=28	=28	=28	=28	=28	=28	=28
!	!	!	!LO:TX:a:t=P:problem=mixed beam	!LO:TX:a:t=P:problem=mixed beam	!	!	!	!	!	!
4.BBn/	7	4.Bn/	8f/L	8a-/L	.	4.f\	et	4.a-\	et	.
.	.	.	8ff\	8aa-\	.	.	.	.	.	.
.	.	.	8f/J	8a-/J	.	.	.	.	.	.
!	!	!	!LO:TX:a:t=P:problem=mixed beam	!LO:TX:a:t=P:problem=mixed beam	!	!	!	!	!	!
4.BB/	.	4.B/	8f/L	8a-/L	.	4.f\	fla-	4.a-\	fla-	.
.	.	.	8ff\	8aa-\	.	.	.	.	.	.
.	.	.	8f/J	8a-/J	.	.	.	.	.	.
=29	=29	=29	=29	=29	=29	=29	=29	=29	=29	=29
!	!	!	!LO:TX:a:t=P:problem=mixed beam	!LO:TX:a:t=P:problem=mixed beam	!	!	!	!	!	!
4.C/	.	4.c/	8e-/L	8g/L	.	4.e-\	-gel-	4.g\	-gel-	.
.	.	.	8ee-\	8gg\	.	.	.	.	.	.
.	.	.	8e-/J	8g/J	.	.	.	.	.	.
!	!	!	!LO:TX:a:t=P:problem=mixed beam	!LO:TX:a:t=P:problem=mixed beam	!	!	!	!	!	!
4.AA-X/	.	4.A-/	8c/L	8e-/L	.	4.e-\	-lis	4.cc\	-lis	.
.	.	.	8cc\	8ee-\	.	.	.	.	.	.
.	.	.	8c/J	8e-/J	.	.	.	.	.	.
=30	=30	=30	=30	=30	=30	=30	=30	=30	=30	=30
!	!	!	!LO:TX:a:t=P:problem=mixed beam	!LO:TX:a:t=P:problem=mixed beam	!	!	!	!	!	!
4.FF/	7	4.F/	8c/L	8e-/L	.	(4.e-\	sub-	(4.cc\	sub-	.
.	.	.	8cc\	8ee-\	.	.	.	.	.	.
.	.	.	8c/J	8e-/J	.	.	.	.	.	.
!	!	!	!LO:TX:a:t=P:problem=mixed beam	!LO:TX:a:t=P:problem=mixed beam	!	!	!	!	!	!
4.GG/	n	4.G/	8Bn/L	8d/L	.	4d\)	.	8bn\)	.	.
.	.	.	8bn\	8dd\	.	.	.	4cc\	-di-	.
.	.	.	8B/J	8d/J	.	8c\	-di-	.	.	.
=31	=31	=31	=31	=31	=31	=31	=31	=31	=31	=31
4.C/	.	4.c\	8c/L	8c/L	.	4.c\	-tum	4.cc\	-tum	.
.	.	.	8g/	8g/	.	.	.	.	.	.
.	.	.	8e-/J	8e-/J	.	.	.	.	.	.
8C/L	.	8c\L	4.c/	4.c/	.	4r	.	4r	.	.
8E-/	.	8e-\	.	.	.	.	.	.	.	.
8C/J	.	8c\J	.	.	.	8r	.	8r	.	.
=32	=32	=32	=32	=32	=32	=32	=32	=32	=32	=32
*	*	*	*	*	*	*2\right	*	*	*	*
2.GG/	n	2.G/	8G/L	8G/L	.	2.g\	vi-	2.g/	Vi-	.
.	.	.	8d/	8d/	.	.	.	.	.	.
!	!	!	!LO:SIC:v:s=8Bn	!	!	!	!	!	!	!
.	.	.	8B-/J	8Bn/J	.	.	.	.	.	.
.	.	.	8G/L	8G/L	.	.	.	.	.	.
.	.	.	8d/	8d/	.	.	.	.	.	.
.	.	.	8Bn/J	8Bn/J	.	.	.	.	.	.
=33	=33	=33	=33	=33	=33	=33	=33	=33	=33	=33
2.GG/	6 4	2.G/	8G/L	8G/L	.	2.g\	-dit	2.g/	-dit	.
.	.	.	8e-/	8e-/	.	.	.	.	.	.
.	.	.	8c/J	8c/J	.	.	.	.	.	.
.	.	.	8G/L	8G/L	.	.	.	.	.	.
.	.	.	8e-/	8e-/	.	.	.	.	.	.
.	.	.	8c/J	8c/J	.	.	.	.	.	.
=34	=34	=34	=34	=34	=34	=34	=34	=34	=34	=34
2.GG/	7 n	2.G/	8G/L	8G/L	.	2.g\	Je-	2.g/	Je-	.
.	.	.	8f/	8f/	.	.	.	.	.	.
.	.	.	8d/J	8d/J	.	.	.	.	.	.
.	.	.	8G/L	8G/L	.	.	.	.	.	.
.	.	.	8f/	8f/	.	.	.	.	.	.
.	.	.	8d/J	8d/J	.	.	.	.	.	.
!	!	!LO:LB:g=original	!	!LO:LB:g=original	!	!	!	!	!	!
=35	=35	=35	=35	=35	=35	=35	=35	=35	=35	=35
2.GG/	6 4	2.G/	8G/L	8G/L	.	2.g\	-sum	2.g/	-sum	.
.	.	.	8g/	8g/	.	.	.	.	.	.
.	.	.	8e-/J	8e-/J	.	.	.	.	.	.
.	.	.	8G/L	8G/L	.	.	.	.	.	.
.	.	.	8g/	8g/	.	.	.	.	.	.
.	.	.	8e-/J	8e-/J	.	.	.	.	.	.
=36	=36	=36	=36	=36	=36	=36	=36	=36	=36	=36
2.GG/	7 n	2.G/	8G/L	8G/L	.	4.g\	in	4.g/	in	.
.	.	.	8f/	8f/	.	.	.	.	.	.
.	.	.	8d/J	8d/J	.	.	.	.	.	.
.	.	.	8G/L	8G/L	.	4.g\	tor-	4.g/	tor-	.
.	.	.	8f/	8f/	.	.	.	.	.	.
.	.	.	8d/J	8d/J	.	.	.	.	.	.
=37	=37	=37	=37	=37	=37	=37	=37	=37	=37	=37
2.GG/	6 4	2.G/	8G/L	8G/L	.	4.g\	-men-	4.g/	-men-	.
.	.	.	8e-/	8e-/	.	.	.	.	.	.
.	.	.	8c/J	8c/J	.	.	.	.	.	.
.	.	.	8G/L	8G/L	.	4.g\	-tis	4.g/	-tiſ	.
!	!	!	!LO:SIC:v:s=8d	!	!	!	!	!	!	!
.	.	.	8e-/	8d/	.	.	.	.	.	.
!	!	!	!LO:SIC:v:s=8Bn	!	!	!	!	!	!	!
.	.	.	8c/J	8Bn/J	.	.	.	.	.	.
=38	=38	=38	=38	=38	=38	=38	=38	=38	=38	=38
!	!	!	!LO:TX:a:t=P:problem=mixed beam	!LO:TX:a:t=P:problem=mixed beam	!	!	!	!	!	!
4.C/	.	4.c\	8G/L	8G/L	.	4.g\	et	4.cc\	et	.
!	!	!	!LO:SIC:v:s=8ee-	!	!	!	!	!	!	!
.	.	.	8ff\	8ee-\	.	.	.	.	.	.
.	.	.	8cc\J	8cc\J	.	.	.	.	.	.
4.D/	6\	4.d\	8r	8r	.	4.f\	fla-	4.bn\	fla-	.
.	.	.	8bn\L	8bn\L	.	.	.	.	.	.
!	!	!	!	!LO:SIC:v:s=8dd	!	!	!	!	!	!
.	.	.	8dd\J	8cc\J	.	.	.	.	.	.
=39	=39	=39	=39	=39	=39	=39	=39	=39	=39	=39
4.E-\	6	4.e-\	8r	8r	.	4.g\	-gel-	4.cc\	-gel-	.
.	.	.	8cc/L	8cc/L	.	.	.	.	.	.
.	.	.	8g/J	8g/J	.	.	.	.	.	.
!	!	!	!	!	!	!LO:SIC:v:s=4.a-	!	!	!	!
4.F\	6 5	4.f\	8r	8r	.	4.a\	-lis	4.cc\	-lis	.
.	.	.	8a-/L	8a-/L	.	.	.	.	.	.
.	.	.	8f/J	8f/J	.	.	.	.	.	.
!LO:LB:g=original	!	!	!LO:LB:g=original	!	!	!	!	!	!	!
=40	=40	=40	=40	=40	=40	=40	=40	=40	=40	=40
4.G\	4	4.g\	8r	8r	.	4.d\	sub-	(4.cc\	sub-	.
.	.	.	8e-/L	8e-/L	.	.	.	.	.	.
.	.	.	8c/J	8c/J	.	.	.	.	.	.
4.GG/	n	4.G/	8r	8r	.	4d\	.	4bn\)	.	.
.	.	.	8Bn/L	8Bn/L	.	.	.	.	.	.
.	.	.	8d/J	8d/J	.	8c\	-di-	8cc\	-di-	.
!	!	!	!	!	!	!LO:LB:g=original	!	!LO:LB:g=original	!	!
=41	=41	=41	=41	=41	=41	=41	=41	=41	=41	=41
!	!	!	!LO:N:vis=4	!	!	!	!	!	!	!
4.C/	.	4.c\	4.c/	4.c/	.	4.c\	-tum	4.cc\	-tum	.
4r	.	4r	4r	4r;	.	4r	.	4r	.	.
8r	.	8r	8r;	8r	.	8r	.	8r	.	.
=42	=42	=42	=42	=42	=42	=42	=42	=42	=42	=42
4.C/	.	4.c\	8r	8r	.	4.e-\	et	4.cc\	et	.
.	.	.	8gg\L	8gg\L	.	.	.	.	.	.
.	.	.	8ee-\J	8ee-\J	.	.	.	.	.	.
!	!	!	!	!	!	!	!	!LO:SIC:v:s=4.bn	!	!
4.D/	6\	4.d\	8r	8r	.	4.f\	fla-	4.b-\	fla-	.
!	!	!	!LO:SIC:v:s=8bn	!	!	!	!	!	!	!
.	.	.	8b-\L	8bn\L	.	.	.	.	.	.
.	.	.	8dd\J	8dd\J	.	.	.	.	.	.
=43	=43	=43	=43	=43	=43	=43	=43	=43	=43	=43
4.E-\	6	4.e-\	8r	8r	.	4.g\	-gel-	4.cc\	-gel-	.
.	.	.	8cc\L	8cc/L	.	.	.	.	.	.
.	.	.	8g\J	8g/J	.	.	.	.	.	.
!	!	!	!	!	!	!LO:SIC:v:s=4.a-	!	!	!	!
4.F\	6 5	4.f\	8r	8r	.	4.a\	-lis	4.cc\	-lis	.
.	.	.	8a-/L	8a-/L	.	.	.	.	.	.
.	.	.	8f/J	8f/J	.	.	.	.	.	.
=44	=44	=44	=44	=44	=44	=44	=44	=44	=44	=44
4.G\	4	4.g\	8r	8r	.	4.d\	sub-	4.cc\	sub-	.
.	.	.	8e-/L	8e-/L	.	.	.	.	.	.
.	.	.	8c/J	8c/J	.	.	.	.	.	.
4.GG/	n	4.G/	8r	8r	.	4d\	.	(4bn\	.	.
.	.	.	8Bn/L	8Bn/L	.	.	.	.	.	.
.	.	.	8d/J	8d/J	.	8c\	-di-	8cc\)	-di-	.
=45	=45	=45	=45	=45	=45	=45	=45	=45	=45	=45
4.C/	.	4.c\	4.c/	[>4.c/	.	4.c\	-tum	4.cc\	-tum	.
!	!	!	!LO:TX:a:t=P:problem=mixed beam	!LO:TX:a:t=P:problem=mixed beam	!	!	!	!	!	!
4.E-\	6	4.e-\	8c/L	8c/L]	.	4r	.	4r	.	.
.	.	.	8cc\	8cc\	.	.	.	.	.	.
.	.	.	8g\J	8g\J	.	8r	.	8r	.	.
=46	=46	=46	=46	=46	=46	=46	=46	=46	=46	=46
!	!	!	!	!	!	!LO:TX:a:t=4	!	!	!	!
!	!	!	!	!	!	!LO:N:vis=00	!	!LO:N:vis=00	!	!
4.F\	6 5	4.f\	4.a-/	4.a-/	.	0.r	.	0.r	.	.
4.G\	n	4.g\	8a-/L	8a-/L	.	.	.	.	.	.
.	.	.	8g/	8g/	.	.	.	.	.	.
!	!	!	!LO:SIC:v:s=8Bn	!	!	!	!	!	!	!
.	.	.	8B-/J	8Bn/J	.	.	.	.	.	.
!	!	!	!	!LO:LB:g=original	!	!	!	!	!	!
=47	=47	=47	=47	=47	=47	=47	=47	=47	=47	=47
!	!	!	!LO:TX:a:t=P:problem=takty 47-48 zapisane repetycją, adnotacja "bis"	!	!	!	!	!	!	!
4.A-\	.	4.a-X\	4.c/yy	4.c/	.	.	.	.	.	.
!	!	!	!LO:TX:a:t=P:problem=mixed beam	!LO:TX:a:t=P:problem=mixed beam	!	!	!	!	!	!
4.E-\	6	4.e-\	8c/Lyy	8c/L	.	.	.	.	.	.
.	.	.	8cc\yy	8cc\	.	.	.	.	.	.
.	.	.	8g\Jyy	8g\J	.	.	.	.	.	.
=48	=48	=48	=48	=48	=48	=48	=48	=48	=48	=48
4.F\	6 5	4.f\	4.a-/yy	4.a-/	.	.	.	.	.	.
4.G\	n	4.g\	8a-/Lyy	8a-/L	.	.	.	.	.	.
.	.	.	8g/yy	8g/	.	.	.	.	.	.
!	!	!	!LO:SIC:v:s=8Bn	!	!	!	!	!	!	!
.	.	.	8B-/Jyy	8Bn/J	.	.	.	.	.	.
=49	=49	=49	=49	=49	=49	=49	=49	=49	=49	=49
2.C/	.	2.c\	2.c/	2.c/	.	.	.	.	.	.
==	==	==	==	==	==	==	==	==	==	==
*-	*-	*-	*-	*-	*-	*-	*-	*-	*-	*-
!!!system-decoration: [g1][g2]s6
!!!RDF**kern: > = above
!!!ENC: Zofia Niedbalska
!!!END: 2020-11-29
!!!ENC: Andrzej Borzym
!!!END: 2020-06-09
